fs/cellular_data_1_20_regular.svg

<svg viewBox="0 0 20 20" fill="none" xmlns="http://www.w3.org/2000/svg" height="1em" width="1em">
  <path d="M16.5033 4C16.7488 4 16.953 4.17688 16.9953 4.41012L17.0033 4.5V15.5002C17.0033 15.7764 16.7795 16.0002 16.5033 16.0002C16.2579 16.0002 16.0537 15.8234 16.0114 15.5901L16.0033 15.5002V4.5C16.0033 4.22386 16.2272 4 16.5033 4ZM7.50335 9.99892C7.74881 9.99892 7.95296 10.1758 7.99529 10.409L8.00335 10.4989V15.4992C8.00335 15.7753 7.77949 15.9992 7.50335 15.9992C7.25789 15.9992 7.05374 15.8223 7.0114 15.5891L7.00335 15.4992V10.4989C7.00335 10.2228 7.22721 9.99892 7.50335 9.99892ZM4.5 11.9992C4.74546 11.9992 4.94961 12.1761 4.99194 12.4093L5 12.4992V15.4992C5 15.7753 4.77614 15.9992 4.5 15.9992C4.25454 15.9992 4.05039 15.8223 4.00806 15.5891L4 15.4992V12.4992C4 12.223 4.22386 11.9992 4.5 11.9992ZM10.5 7.99671C10.7455 7.99671 10.9496 8.17359 10.9919 8.40684L11 8.49671V15.4992C11 15.7753 10.7761 15.9992 10.5 15.9992C10.2545 15.9992 10.0504 15.8223 10.0081 15.5891L10 15.4992V8.49671C10 8.22057 10.2239 7.99671 10.5 7.99671ZM13.5 6.00128C13.7455 6.00128 13.9496 6.17816 13.9919 6.41141L14 6.50128V15.4992C14 15.7753 13.7761 15.9992 13.5 15.9992C13.2545 15.9992 13.0504 15.8223 13.0081 15.5891L13 15.4992V6.50128C13 6.22514 13.2239 6.00128 13.5 6.00128Z" fill="#212121"/>
</svg>

<svg viewBox="0 0 20 20" fill="none" xmlns="http://www.w3.org/2000/svg" height="1em" width="1em">
  <path d="M16.503 4a.5.5 0 0 1 .492.41l.008.09v11a.5.5 0 0 1-.992.09l-.008-.09v-11a.5.5 0 0 1 .5-.5Zm-9 5.999a.5.5 0 0 1 .492.41l.008.09v5a.5.5 0 0 1-.992.09l-.008-.09v-5a.5.5 0 0 1 .5-.5Zm-3.003 2a.5.5 0 0 1 .492.41L5 12.5v3a.5.5 0 0 1-.992.09L4 15.5v-3a.5.5 0 0 1 .5-.5Zm6-4.002a.5.5 0 0 1 .492.41l.008.09v7.002a.5.5 0 0 1-.992.09L10 15.5V8.497a.5.5 0 0 1 .5-.5ZM13.5 6a.5.5 0 0 1 .492.41L14 6.5v9a.5.5 0 0 1-.992.09L13 15.5V6.501a.5.5 0 0 1 .5-.5Z" fill="#212121"/>
</svg>
